X:68
T:Plirar man lagom
R:sl\"angpolska
A:Sm{\aa}land
Z:id:hn-sp-68
M:3/4
L:1/16
K:Dm =b
D2DD (D2A2) A3A | B2(AG) A4 E4 |
w:Plir-ar man la_gom p{\aa} herr-g{\aa}rds_dr\"ang-ar
F3A G2F2 E2DD |1 D2^CD E8 :|2 D2^CD E6 || \
w:ras-ka \"ar de v\"al men de har ing-en must. har ing-en must.
A2 | A2cB A4 F2A2 | G2AB A4 E4 | F3A G2F2 E2D2 | (^CD)EF D6 \
w:De gap-a p{\aa} \"ang-a', {\aa} pet-a i mat-a, s{\aa}-som kom-ma de fr{\aa}n fr\"am_man-de kust.
A2 | A2cB A2F2 F2A2 | G2AB A4 E4 | F3A G2F2 E2DD | (^CD)EF D8 ||
w:De krok-na i s\"ang-a, fast de skryt-a {\aa} gap-a ras-ka \"ar de v\"al men de har_ ing-en must.
<end>
<start>
